assets/icons/drive/harddisk-warning-filled.svg

<?xml version="1.0" encoding="UTF-8" standalone="no"?>
<svg viewBox="0 0 24 24" height="24" width="24" version="1.1" id="svg10" sodipodi:docname="harddisk-warning-filled.svg" inkscape:version="1.2 (1:1.2.1+202207142221+cd75a1ee6d)"
   xmlns:inkscape="http://www.inkscape.org/namespaces/inkscape"
   xmlns:sodipodi="http://sodipodi.sourceforge.net/DTD/sodipodi-0.dtd"
   xmlns="http://www.w3.org/2000/svg"
   xmlns:svg="http://www.w3.org/2000/svg">
   <defs id="defs14" />
   <sodipodi:namedview id="namedview12" pagecolor="#ffffff" bordercolor="#666666" borderopacity="1.0" inkscape:pageshadow="2" inkscape:pageopacity="0.0" inkscape:pagecheckerboard="0" showgrid="true" inkscape:snap-page="true" inkscape:zoom="39.265625" inkscape:cx="6.5324314" inkscape:cy="17.789097" inkscape:window-width="1846" inkscape:window-height="1016" inkscape:window-x="0" inkscape:window-y="0" inkscape:window-maximized="1" inkscape:current-layer="svg10" inkscape:showpageshadow="2" inkscape:deskcolor="#d1d1d1">
      <inkscape:grid type="xygrid" id="grid957" />
      <inkscape:grid type="xygrid" id="grid234" dotted="true" spacingx="0.5" spacingy="0.5" empspacing="10" />
   </sodipodi:namedview>
   <path id="path860" style="color:#000000;fill:#808080;fill-opacity:1" d="M 7.4550781 2 C 6.4864983 2.0089807 5.7372585 2.0732698 5.1171875 2.4453125 C 4.7038068 2.693341 4.3972495 3.1012204 4.2285156 3.6074219 C 4.0597819 4.1136234 4 4.7222238 4 5.5 L 4 18.5 C 4 19.277776 4.0597822 19.886377 4.2285156 20.392578 C 4.3972495 20.89878 4.7038068 21.306659 5.1171875 21.554688 C 5.9439489 22.050745 7.0000035 22 8.5 22 L 12 22 L 12 18.994141 C 9.7653589 18.996178 7.7625589 17.504906 7.1699219 15.294922 C 6.5201555 12.871137 7.7675913 10.341171 10.085938 9.3808594 C 10.670632 9.1385816 11.294577 9.0093 11.925781 9 C 12.015953 8.9987 12.106916 9.0003063 12.197266 9.0039062 C 13.523893 9.0610882 14.773293 9.6436257 15.669922 10.623047 L 16.353516 11.353516 L 14.853516 12.853516 L 14.146484 12.146484 L 14.964844 11.328125 C 13.833344 10.070562 12.033079 9.6607695 10.46875 10.304688 C 8.6147489 11.073183 7.6172492 13.096585 8.1367188 15.035156 C 8.6107451 16.802565 10.212859 17.997096 12 17.996094 L 12 16 A 2 2 0 0 1 10 14 A 2 2 0 0 1 12 12 A 2 2 0 0 1 13.732422 13 L 20 13 L 20 5.5 C 20 4.7222238 19.94022 4.1136234 19.771484 3.6074219 C 19.602751 3.1012204 19.296194 2.693341 18.882812 2.4453125 C 18.056052 1.9492557 16.999997 2 15.5 2 L 8.5 2 C 8.1250009 2 7.7779381 1.9970064 7.4550781 2 z M 12 13 A 1 1 0 0 0 11 14 A 1 1 0 0 0 12 15 L 12 13 z " />
   <path id="path1329" style="color:#000000;fill:#808080;fill-opacity:1;stroke-width:1px;stroke-linejoin:round;-inkscape-stroke:none" d="m 17.499424,14 a 0.50005,0.50005 0 0 0 -0.433594,0.251953 l -4,7 A 0.50005,0.50005 0 0 0 13.499424,22 h 8 a 0.50005,0.50005 0 0 0 0.433594,-0.748047 l -4,-7 A 0.50005,0.50005 0 0 0 17.499424,14 Z m -0.5,2 h 1 v 2 l -0.199219,1 h -0.601562 l -0.199219,-1 z m 0.5,4 a 0.5,0.5 0 0 1 0.5,0.5 0.5,0.5 0 0 1 -0.5,0.5 0.5,0.5 0 0 1 -0.5,-0.5 0.5,0.5 0 0 1 0.5,-0.5 z" />
</svg>

<svg height="24" width="24" xmlns="http://www.w3.org/2000/svg"><path style="color:#000;fill:gray;fill-opacity:1" d="M7.455 2c-.969.009-1.718.073-2.338.445-.413.248-.72.656-.888 1.162C4.059 4.114 4 4.722 4 5.5v13c0 .778.06 1.386.229 1.893.168.506.475.914.888 1.162C5.944 22.05 7 22 8.5 22H12v-3.006a4.996 4.996 0 0 1-1.914-9.613 4.998 4.998 0 0 1 2.111-.377 5 5 0 0 1 3.473 1.619l.684.73-1.5 1.5-.708-.707.819-.818a4 4 0 0 0-4.496-1.023A3.999 3.999 0 0 0 12 17.996V16a2 2 0 0 1-2-2 2 2 0 0 1 2-2 2 2 0 0 1 1.732 1H20V5.5c0-.778-.06-1.386-.229-1.893-.168-.506-.475-.914-.888-1.162C18.056 1.95 17 2 15.5 2h-7c-.375 0-.722-.003-1.045 0zM12 13a1 1 0 0 0-1 1 1 1 0 0 0 1 1v-2z"/><path style="color:#000;fill:gray;fill-opacity:1;stroke-width:1px;stroke-linejoin:round;-inkscape-stroke:none" d="M17.5 14a.5.5 0 0 0-.434.252l-4 7a.5.5 0 0 0 .433.748h8a.5.5 0 0 0 .434-.748l-4-7a.5.5 0 0 0-.434-.252zm-.5 2h1v2l-.2 1h-.6l-.2-1zm.5 4a.5.5 0 0 1 .5.5.5.5 0 0 1-.5.5.5.5 0 0 1-.5-.5.5.5 0 0 1 .5-.5z"/></svg>
